X: 1
T: Kaheksu
O: Finland
Z: 2009 John Chambers <jc:trillian.mit.edu>
F: http://www.nordlek.fi/dokum/Kaheksu_noter.pdf
M: 2/4
L: 1/8
K: D
|: "D"AA A2 | BA A2 | "A7"cB AG |1 "D"FD D2 :|2 "F#"FE DC |
|: "Bm"B,>D FF | "Em"ED C2 | "F#"FF FF | "Bm"B2 B2 :|
